svgs/light/traffic-cone.svg

<svg xmlns="http://www.w3.org/2000/svg" viewBox="0 0 512 512"><!--! Font Awesome Pro 6.0.0-alpha3 by @fontawesome - https://fontawesome.com License - https://fontawesome.com/license (Commercial License) --><path d="M496 480h-480C7.164 480 0 487.2 0 496C0 504.8 7.164 512 16 512h480c8.836 0 16-7.164 16-16C512 487.2 504.8 480 496 480zM58.13 446.9c8.094 3.234 17.53-.75 20.75-8.984L112.8 352h286.3l33.98 85.89C435.6 444.2 441.6 448 448 448c1.969 0 3.969-.3594 5.875-1.125c8.219-3.25 12.25-12.55 9-20.77L302.3 20.33C297.5 7.984 285.8 0 272.6 0H239.4C226.2 0 214.5 7.984 209.7 20.28L49.13 426.1C45.88 434.3 49.91 443.6 58.13 446.9zM239.4 32l33.16 .0625L323.2 160H188.8L239.4 32zM176.1 192h159.7l50.64 128H125.5L176.1 192z"/></svg>

<svg xmlns="http://www.w3.org/2000/svg" viewBox="0 0 512 512"><!-- Font Awesome Pro 6.0.0-alpha2 by @fontawesome - https://fontawesome.com License - https://fontawesome.com/license (Commercial License) --><path d="M496 480H16C7.164 480 0 487.162 0 496C0 504.836 7.164 512 16 512H496C504.836 512 512 504.836 512 496C512 487.162 504.836 480 496 480ZM58.125 446.875C66.219 450.109 75.656 446.125 78.875 437.891L112.846 352H399.143L433.125 437.891C435.594 444.172 441.625 448 448 448C449.969 448 451.969 447.641 453.875 446.875C462.094 443.625 466.125 434.328 462.875 426.109L302.344 20.328C297.5 7.984 285.812 0 272.594 0H239.406C226.188 0 214.5 7.984 209.688 20.281L49.125 426.109C45.875 434.328 49.906 443.625 58.125 446.875ZM239.406 32L272.562 32.062L323.18 160H188.781L239.406 32ZM176.125 192H335.84L386.482 320H125.502L176.125 192Z"/></svg>
